X:1
T:Title
%%score 1 2 3
L:1/8
M:2/2
K:C
V:1 treble nm="Part_1"
V:2 treble-8 nm="Part_2"
V:3 treble-8 nm="Part_3"
V:1
 D4 A4 | _B4 A2 B2 | G2 F2 A4 | A2 B2 c4 | c4 A4 | _B4 A4 | _B2 A2 G2 A2 | F2 E2 G4 | z4 A4 | %9
 _B2 A2 G4 | E4 F4 | G4 G4 | G4 A4- | A2 G2 E4 | D4 z4 | D4 F4 | F2 G4 F2 | G4 G4 | F4 A4 | %19
 _B4 G4 | F2 G2 E2 D2 | F4 z4 | F4 F4 | G4 A2 _B2 | A2 G2 A4 | c8 | A4 G4 | F4 A4 | G2 F4 E2 | %29
 F4 F4 | A4 _B4 | A4 G4 | A2 GA _B2 A2 | F4 z4 | F4 G4 | G4 G4 | F4 G4 | A6 G2 | A2 _B2 G3 F | %39
 A4 z4 | F4 A4 | G4 A4 | A4 A4 | G4 F4 | D2 F2 E4 | D4 D4 | F4 A4 | _B4 B2 G2- | G2 F2 G4 | z4 F4 | %50
 G4 F2 E2 | D4 E4 | F6 E2 | D4 C4- | C2 B,2 D4 || F4 A4 | G6 F2 | A4 A4 | A2 A2 A4 | A4 A4 | %60
 c4 A4 | A4 A4 | G6 F2 | G4 A4 | z4 F4 | G4 A4 | A4 A2 A2 | A2 B2 c4 | A4 G4 | F4 A4 | G6 F2 | %71
 G4 A4 || F4 A4 | G6 F2 | A4 A4 | A4 A2 G2 | A2 G2 A4 | z4 A2 A2 | A2 B2 c2 A2 | A4 A4 | G6 F2 | %81
 G4 A4 | z4 F4 | G4 A4 | A4 A4 | A2 A2 A2 A2 | A4 A4 | A2 B2 c4 | A4 A2 F2 | G4 A4 | z4 F4 | %91
 G4 A4 | A2 A2 A4 | A4 A2 B2 | c4 A4 | G4 F4 | A4 G4- | G2 F2 G4 | A8 |] %99
V:2
 A4 e4 | f4 e2 f2 | d2 c2 e4 | e2 f2 g4 | g4 e4 | f4 e4 | f2 e2 d2 e2 | c2 B2 d4 | z4 e4 | %9
 f2 e2 d4 | B4 c4 | d4 d4 | d4 e4- | e2 d2 B4 | A4 z4 | A4 c4 | c2 d4 c2 | d4 d4 | c4 e4 | f4 d4 | %20
 c2 d2 B2 A2 | c4 z4 | c4 c4 | d4 e2 f2 | e2 d2 e4 | g8 | e4 d4 | c4 e4 | d2 c4 B2 | c4 c4 | %30
 e4 f4 | e4 d4 | e2 de f2 e2 | c4 z4 | c4 d4 | d4 d4 | c4 d4 | e6 d2 | e2 f2 d3 c | e4 z4 | c4 e4 | %41
 d4 e4 | e4 e4 | d4 c4 | A2 c2 B4 | A4 A4 | c4 e4 | f4 f2 d2- | d2 c2 d4 | z4 c4 | d4 c2 B2 | %51
 A4 B4 | c6 B2 | A4 G4- | G2 F2 A4 || c4 e4 | d6 c2 | e4 e4 | e2 e2 e4 | e4 e4 | g4 e4 | e4 e4 | %62
 d6 c2 | d4 e4 | z4 c4 | d4 e4 | e4 e2 e2 | e2 f2 g4 | e4 d4 | c4 e4 | d6 c2 | d4 e4 || c4 e4 | %73
 d6 c2 | e4 e4 | e4 e2 d2 | e2 d2 e4 | z4 e2 e2 | e2 f2 g2 e2 | e4 e4 | d6 c2 | d4 e4 | z4 c4 | %83
 d4 e4 | e4 e4 | e2 e2 e2 e2 | e4 e4 | e2 f2 g4 | e4 e2 c2 | d4 e4 | z4 c4 | d4 e4 | e2 e2 e4 | %93
 e4 e2 f2 | g4 e4 | d4 c4 | e4 d4- | d2 c2 d4 | e8 |] %99
V:3
 D4 c4 | d4 c4 | _B4 A4 | c2 d2 e4 | c4 c4 | d4 A4 | d4 _B4 | A4 G4- | G4 c4 | d4 B4 | G4 A4 | %11
 G4 B4 | G4 c4- | c2 B2 G4 | D8 | F8 | A2 _B2 A4 | G4 _B4 | A4 c4 | d4 _B4 | A4 G4 | F8 | A4 F4 | %23
 _B4 c4 | B4 A4 | e8 | c4 _B4 | A8 | _B2 A2 G4 | F4 A4 | c4 d4 | c4 G4 | c4 d4 | A8 | F4 _B4 | %35
 G4 _B4 | F4 _B4 | c6 _B2 | A4 _B4 | A8 | A4 c4 | _B4 A4 | c4 A4 | _B4 A4 | F4 G4 | D4 F4 | A4 c4 | %47
 d4 c2 _B2 | A4 G4- | G4 A4 | B4 A2 G2 | D4 G4 | A6 G2 | F4 E4- | E4 D4 || A4 c4 | B8 | A4 c4 | %58
 c2 c2 A4 | c4 c4 | e4 A4 | c4 c4 | B8 | B4 A4 | z4 A4 | B4 A4 | c4 c2 c2 | c2 d2 e4 | c4 G4 | %69
 A4 c4 | B6 A2 | B4 A4 || A4 c4 | B8 | A4 c4 | A4 c2 c2 | c2 B2 A4 | z4 c2 c2 | c2 d2 e2 c2 | %79
 A4 c4 | B8 | B4 A4 | z4 A4 | B4 A4 | c4 A4 | c2 A2 c2 c2 | A4 c4 | c2 d2 e4 | A4 A4 | B4 A4 | %90
 z4 A4 | B4 A4 | c2 c2 A4 | c4 c2 d2 | e4 c4 | _B4 F4 | c4 _B4- | B2 A2 _B4 | A8 |] %99

